brandFactory_export/2.Regular/Configurar modem_2Regular.svg

<?xml version="1.0" encoding="UTF-8"?>
<svg width="24px" height="24px" viewBox="0 0 24 24" version="1.1" xmlns="http://www.w3.org/2000/svg" xmlns:xlink="http://www.w3.org/1999/xlink">
    <title>2.Regular/Configurar modem_2Regular</title>
    <g id="Symbols" stroke="none" stroke-width="1" fill="none" fill-rule="evenodd">
        <g id="2.Regular/Configurar-modem_2Regular" fill="#5CB615" fill-rule="nonzero">
            <path d="M4.27226891,4.96806723 C4.64201681,4.96806723 4.94453782,5.27058824 4.94453782,5.64033613 L4.944,14.1142546 L13.058,14.1142546 L13.394958,13.7781513 C13.3647059,13.7008403 13.3369748,13.6218487 13.3117647,13.5420168 L13.2436975,13.3008403 L12.4907563,13.3008403 C12.0268908,13.3008403 11.6504202,12.9243697 11.6504202,12.4605042 L11.6504202,12.4605042 L11.6504202,11.2168067 C11.6504202,10.7529412 12.0268908,10.3764706 12.4907563,10.3764706 L12.4907563,10.3764706 L13.2470588,10.3764706 C13.287395,10.2151261 13.3378151,10.0537815 13.3983193,9.89915966 L13.3983193,9.89915966 L12.8941176,9.39495798 C12.5647059,9.06554622 12.5647059,8.53445378 12.8941176,8.20504202 L12.8941176,8.20504202 L13.7714286,7.32773109 C14.1008403,6.99831933 14.6319328,6.99831933 14.9613445,7.32773109 L14.9613445,7.32773109 L15.4655462,7.83193277 C15.6201681,7.77142857 15.7815126,7.7210084 15.9428571,7.68067227 L15.9428571,7.68067227 L15.9428571,6.92436975 C15.9428571,6.4605042 16.3193277,6.08403361 16.7831933,6.08403361 L16.7831933,6.08403361 L18.0268908,6.08403361 C18.487395,6.08403361 18.8638655,6.4605042 18.8638655,6.92436975 L18.8638655,6.92436975 L18.8638655,7.68067227 C19.0252101,7.7210084 19.1865546,7.77142857 19.3411765,7.83193277 L19.3411765,7.83193277 L19.8453782,7.32773109 C20.1747899,6.99831933 20.7058824,6.99831933 21.0352941,7.32773109 L21.0352941,7.32773109 L21.9159664,8.20168067 C22.2453782,8.53109244 22.2453782,9.06218487 21.9159664,9.39159664 L21.9159664,9.39159664 L21.4117647,9.89579832 C21.4722689,10.0537815 21.5226891,10.2117647 21.5630252,10.3731092 L21.5630252,10.3731092 L22.3193277,10.3731092 C22.7831933,10.3731092 23.1596639,10.7495798 23.1596639,11.2134454 L23.1596639,11.2134454 L23.1596639,12.4571429 C23.1596639,12.9210084 22.7831933,13.297479 22.3193277,13.297479 L22.3193277,13.297479 L21.5630252,13.297479 C21.5226891,13.4588235 21.4722689,13.6201681 21.4117647,13.7747899 L21.4117647,13.7747899 L21.9159664,14.2789916 C22.0527033,14.4157286 22.1326816,14.5872158 22.1559011,14.764604 C22.8733239,15.2511052 23.6369748,16.2077586 23.6369748,18.0605042 L23.6369748,19.707563 C23.6369748,20.9411765 23.3042017,21.9092437 22.6487395,22.5915966 C21.9630252,23.3042017 20.9647059,23.6605042 19.6840336,23.6605042 L3.94957983,23.6605042 C2.66554622,23.6605042 1.67058824,23.3008403 0.988235294,22.594958 C0.332773109,21.912605 -6.86970481e-11,20.9445378 -6.86970481e-11,19.7109244 L-6.86970481e-11,18.0638655 C-6.86970481e-11,16.8302521 0.332773109,15.8621849 0.988235294,15.1798319 C1.60728291,14.5363883 2.48362234,14.1834355 3.59968421,14.1234833 L3.6,5.64033613 C3.6,5.27058824 3.90252101,4.96806723 4.27226891,4.96806723 Z M12.8776818,15.4589089 L3.94957983,15.4588235 C3.04537815,15.4588235 2.37647059,15.6806723 1.95630252,16.1142857 C1.54957983,16.5344538 1.34453782,17.189916 1.34453782,18.0638655 L1.34453782,19.7109244 C1.34453782,20.5848739 1.54957983,21.2403361 1.95630252,21.6605042 C2.37647059,22.0941176 3.04537815,22.3159664 3.94957983,22.3159664 L19.6840336,22.3159664 C20.5882353,22.3159664 21.2571429,22.0941176 21.6773109,21.6605042 C22.0840336,21.2403361 22.2890756,20.5848739 22.2890756,19.7109244 L22.2890756,18.0638655 C22.2890756,17.0401833 22.0168345,16.3359678 21.4597251,15.9234391 L21.0352941,16.3462185 C20.7058824,16.6756303 20.1747899,16.6756303 19.8453782,16.3462185 L19.8453782,16.3462185 L19.3411765,15.8420168 C19.1865546,15.902521 19.0252101,15.9529412 18.8638655,15.9932773 L18.8638655,15.9932773 L18.8638655,16.7529412 C18.8638655,17.2168067 18.487395,17.5932773 18.0235294,17.5932773 L18.0235294,17.5932773 L16.7798319,17.5932773 C16.3159664,17.5932773 15.9394958,17.2168067 15.9394958,16.7529412 L15.9394958,16.7529412 L15.9394958,15.9966387 C15.7781513,15.9563025 15.6168067,15.9058824 15.4621849,15.8453782 L15.4621849,15.8453782 L14.9579832,16.3495798 C14.6285714,16.6789916 14.097479,16.6789916 13.7680672,16.3495798 L13.7680672,16.3495798 L12.8907563,15.4722689 C12.8863389,15.4678515 12.8819807,15.4633978 12.8776818,15.4589089 Z M3.91932773,17.9159664 C4.62184874,17.9159664 5.05882353,18.3495798 5.05882353,19.0487395 C5.05882353,19.394958 4.95798319,19.6705882 4.75966387,19.8722689 C4.56134454,20.0739496 4.26890756,20.1815126 3.91932773,20.1815126 C3.5697479,20.1815126 3.28067227,20.0739496 3.0789916,19.8722689 C2.87731092,19.6705882 2.77983193,19.394958 2.77983193,19.0487395 C2.77983193,18.3495798 3.21680672,17.9159664 3.91932773,17.9159664 Z M7.21008403,17.9159664 C7.91260504,17.9159664 8.34957983,18.3495798 8.34957983,19.0487395 C8.34957983,19.394958 8.2487395,19.6705882 8.05042017,19.8722689 C7.85210084,20.0739496 7.55630252,20.1815126 7.21008403,20.1815126 C6.8605042,20.1815126 6.57142857,20.0739496 6.3697479,19.8722689 C6.16806723,19.6705882 6.07058824,19.394958 6.07058824,19.0487395 C6.07058824,18.3495798 6.50756303,17.9159664 7.21008403,17.9159664 Z M18.0268908,6.92436975 L16.7831933,6.92436975 L16.7831933,8.38319328 C16.2016807,8.44369748 15.7042017,8.59831933 15.2907563,8.84705882 L15.2907563,8.84705882 L14.3663866,7.92268908 L13.4890756,8.8 L14.4134454,9.72436975 C14.1714286,10.1277311 14.0134454,10.6252101 13.9495798,11.2168067 L13.9495798,11.2168067 L12.4907563,11.2168067 L12.4907563,12.4605042 L13.9495798,12.4605042 C14.010084,13.0521008 14.1680672,13.5495798 14.4134454,13.9529412 L14.4134454,13.9529412 L13.7525722,14.6153989 C13.7670639,14.6700937 13.7747899,14.7274657 13.7747899,14.7865546 C13.7747899,14.8955934 13.7484808,14.9987856 13.7018971,15.090097 L14.3663866,15.7546218 L15.2907563,14.8302521 C15.7042017,15.0789916 16.205042,15.2302521 16.7831933,15.2941176 L16.7831933,15.2941176 L16.7831933,16.7529412 L18.0268908,16.7529412 L18.0268908,15.2941176 C18.6084034,15.2336134 19.1058824,15.0789916 19.5193277,14.8302521 L19.5193277,14.8302521 L20.4436975,15.7546218 L20.936868,15.2619995 C20.928857,15.1382649 20.954728,15.0108094 21.0184874,14.8941176 C21.0562031,14.8250908 21.1043139,14.7654044 21.1598218,14.7158879 L20.3966387,13.9529412 C20.6386555,13.5495798 20.7966387,13.0521008 20.8605042,12.4605042 L20.8605042,12.4605042 L22.3193277,12.4605042 L22.3193277,11.2168067 L20.8638655,11.2168067 C20.8033613,10.6252101 20.6453782,10.1277311 20.4,9.72436975 L20.4,9.72436975 L21.3243697,8.8 L20.4436975,7.92268908 L19.5193277,8.84705882 C19.1058824,8.59831933 18.605042,8.44705882 18.0268908,8.38319328 L18.0268908,8.38319328 L18.0268908,6.92436975 Z M17.405042,9.67394958 C18.0806723,9.67394958 18.6084034,9.85546218 18.9848739,10.2151261 C19.3747899,10.5882353 19.5697479,11.1361345 19.5697479,11.8386555 C19.5697479,12.5411765 19.3714286,13.0857143 18.9848739,13.4621849 C18.6084034,13.8218487 18.0773109,14.0033613 17.405042,14.0033613 C16.7327731,14.0033613 16.1983193,13.8218487 15.8252101,13.4621849 C15.4352941,13.0890756 15.2403361,12.5411765 15.2403361,11.8386555 C15.2403361,11.1361345 15.4386555,10.5915966 15.8252101,10.2151261 C16.1983193,9.85546218 16.7294118,9.67394958 17.405042,9.67394958 Z M17.405042,10.5142857 C16.487395,10.5142857 16.0806723,10.9210084 16.0806723,11.8386555 C16.0806723,12.7563025 16.487395,13.1630252 17.405042,13.1630252 C18.3226891,13.1630252 18.7294118,12.7563025 18.7294118,11.8386555 C18.7294118,10.9210084 18.3193277,10.5142857 17.405042,10.5142857 Z M10.0537815,0.221848739 C11.3277311,1.4487395 11.9731092,3.27058824 11.9731092,5.64033613 C11.9731092,8 11.3310924,9.81848739 10.0672269,11.0453782 C9.9394958,11.1663866 9.77142857,11.2336134 9.59663866,11.2336134 C9.22689076,11.2336134 8.92436975,10.9310924 8.92436975,10.5613445 C8.92436975,10.3798319 8.99831933,10.205042 9.12941176,10.0806723 C10.1210084,9.11596639 10.6252101,7.62352941 10.6252101,5.64033613 C10.6252101,3.65042017 10.1176471,2.15462185 9.11932773,1.18991597 C8.85042017,0.931092437 8.84369748,0.507563025 9.10252101,0.238655462 C9.36134454,-0.0302521008 9.78487395,-0.0369747899 10.0537815,0.221848739 Z M7.36134454,1.9092437 C8.24537815,2.76302521 8.69579832,4.02016807 8.69579832,5.64369748 C8.69579832,7.26386555 8.2487395,8.51764706 7.37142857,9.37142857 C7.24369748,9.48907563 7.07563025,9.55630252 6.90084034,9.55630252 C6.53109244,9.55630252 6.22857143,9.25378151 6.22857143,8.88403361 C6.22857143,8.70252101 6.30252101,8.52773109 6.43361345,8.40336134 C7.04201681,7.81176471 7.3512605,6.88403361 7.3512605,5.64369748 C7.3512605,4.40336134 7.04201681,3.46554622 6.42689076,2.87731092 C6.15798319,2.61848739 6.1512605,2.19495798 6.41008403,1.92605042 C6.66890756,1.65714286 7.09243697,1.65042017 7.36134454,1.9092437 Z" id="Configurar-modem_2Regular"></path>
        </g>
    </g>
</svg>

<svg width="24" height="24" viewBox="0 0 24 24" xmlns="http://www.w3.org/2000/svg"><path d="M4.272 4.968c.37 0 .673.303.673.672l-.001 8.474h8.114l.337-.336a3.737 3.737 0 01-.083-.236l-.068-.241h-.753a.84.84 0 01-.84-.84v-1.244a.84.84 0 01.84-.84h.756c.04-.162.09-.323.151-.478l-.504-.504a.84.84 0 010-1.19l.877-.877a.84.84 0 011.19 0l.505.504c.154-.06.316-.111.477-.151v-.757a.84.84 0 01.84-.84h1.244a.84.84 0 01.837.84v.757c.161.04.323.09.477.15l.504-.503a.84.84 0 011.19 0l.881.874c.33.33.33.86 0 1.19l-.504.504c.06.158.11.316.151.477h.756a.84.84 0 01.84.84v1.244a.84.84 0 01-.84.84h-.756c-.04.162-.09.323-.151.478l.504.504a.839.839 0 01.24.486c.717.486 1.481 1.443 1.481 3.296v1.647c0 1.233-.333 2.201-.988 2.884-.686.712-1.684 1.069-2.965 1.069H3.95c-1.284 0-2.28-.36-2.962-1.066C.333 21.913 0 20.945 0 19.711v-1.647c0-1.234.333-2.202.988-2.884.62-.644 1.496-.997 2.612-1.057V5.64c0-.37.303-.672.672-.672zm8.606 10.49H3.95c-.905 0-1.574.223-1.994.656-.406.42-.611 1.076-.611 1.95v1.647c0 .874.205 1.53.611 1.95.42.433 1.09.655 1.994.655h15.734c.904 0 1.573-.222 1.993-.655.407-.42.612-1.076.612-1.95v-1.647c0-1.024-.272-1.728-.83-2.14l-.424.422a.84.84 0 01-1.19 0l-.504-.504c-.154.06-.316.11-.477.151v.76a.84.84 0 01-.84.84H16.78a.84.84 0 01-.84-.84v-.756a3.935 3.935 0 01-.478-.152l-.504.505a.84.84 0 01-1.19 0l-.877-.878a.865.865 0 01-.013-.013zm-8.959 2.458c.703 0 1.14.434 1.14 1.133 0 .346-.101.622-.3.823-.198.202-.49.31-.84.31s-.638-.108-.84-.31c-.202-.201-.3-.477-.3-.823 0-.7.438-1.133 1.14-1.133zm3.291 0c.703 0 1.14.434 1.14 1.133 0 .346-.101.622-.3.823-.198.202-.494.31-.84.31-.35 0-.639-.108-.84-.31-.202-.201-.3-.477-.3-.823 0-.7.438-1.133 1.14-1.133zM18.027 6.924h-1.244v1.46c-.581.06-1.079.214-1.492.463l-.925-.924-.877.877.924.924c-.242.404-.4.901-.463 1.493h-1.46v1.244h1.46c.06.591.218 1.089.463 1.492l-.66.662a.667.667 0 01-.051.475l.664.665.925-.925c.413.249.914.4 1.492.464v1.459h1.244v-1.459c.581-.06 1.079-.215 1.492-.464l.925.925.493-.493a.674.674 0 01.223-.546l-.763-.763c.242-.403.4-.9.464-1.492h1.458v-1.244h-1.455c-.06-.592-.219-1.09-.464-1.493l.924-.924-.88-.877-.925.924c-.413-.249-.914-.4-1.492-.464V6.924zm-.622 2.75c.676 0 1.203.181 1.58.541.39.373.585.921.585 1.624 0 .702-.199 1.247-.585 1.623-.377.36-.908.541-1.58.541s-1.207-.181-1.58-.54c-.39-.374-.585-.922-.585-1.624 0-.703.199-1.247.585-1.624.373-.36.904-.541 1.58-.541zm0 .84c-.918 0-1.324.407-1.324 1.325 0 .917.406 1.324 1.324 1.324s1.324-.407 1.324-1.324c0-.918-.41-1.325-1.324-1.325zM10.054.222c1.274 1.227 1.92 3.049 1.92 5.418 0 2.36-.643 4.178-1.907 5.405a.674.674 0 01-1.143-.484c0-.181.074-.356.205-.48.992-.965 1.496-2.457 1.496-4.44 0-1.99-.507-3.486-1.506-4.451a.67.67 0 01-.016-.951.67.67 0 01.95-.017zM7.36 1.909c.884.854 1.335 2.111 1.335 3.735 0 1.62-.447 2.874-1.325 3.727a.696.696 0 01-.47.185.674.674 0 01-.672-.672c0-.181.074-.356.205-.48.608-.592.917-1.52.917-2.76 0-1.24-.309-2.178-.924-2.767a.67.67 0 01-.017-.95.67.67 0 01.951-.018z" fill="#5CB615" fill-rule="nonzero"/></svg>
